X:146
T:When Sick Is It Tea You Want?
C:Joe Buchanan's Scottish Tome - Page 257.2
I:257 2
Z:Carl Allison
R:Jig
L:1/8
M:6/8
K:D
Add dcB | ABA AFA | Add d2 e | fdB B2 A | Add dcB | ABA AFA | dfd ege | fdd d2 z :|
afd dcd | BGG G2 g | bge ede | cAA B2 B | Add dcB | ABA AFA | dfd ege | fdd d2 z :|

